X: 38285
T: St. Kilda Wedding
R: reel
M: 4/4
K: Dmajor
D/D/D D>D DFAF|E/E/E FD B,2 A,B,|D/D/D D>D DFAF|B/B/B BA BABd|
D/D/D D>D DFAF|E/E/E FD B,2 A,B,|D/D/D D>D DFAF|B/B/B dc BABc||
dcde dAAd|Bcdc B2 AG|FABc d>c Bd|AdFd E2 DB,|
Dddc dAAd|Bcdc B2 AG|FABc d>c Bd|AFdF E2 DB,||

